build/assets/img/icons/camera.svg

<svg height="32" viewBox="0 0 32 32" width="32" xmlns="http://www.w3.org/2000/svg"><g clip-rule="evenodd" fill="#333" fill-rule="evenodd"><path d="m16 10.001a8 8 0 0 0 -8 8 8 8 0 1 0 16 0 8 8 0 0 0 -8-8zm4.555 11.905a5.998 5.998 0 0 1 -8.459.65 5.997 5.997 0 0 1 -.65-8.459 6 6 0 0 1 9.109 7.809z"/><path d="m16 14.001a4 4 0 0 0 -4 3.999v.002a.5.5 0 0 0 1 0v-.002a3 3 0 0 1 3-2.999.5.5 0 0 0 0-1z"/><path d="m29.492 9.042-4.334-.723-1.373-3.434a2.988 2.988 0 0 0 -2.785-1.885h-10a2.99 2.99 0 0 0 -2.786 1.886l-1.372 3.433-4.333.723a2.989 2.989 0 0 0 -2.509 2.958v15c0 1.654 1.346 3 3 3h26c1.654 0 3-1.346 3-3v-15a2.989 2.989 0 0 0 -2.508-2.958zm.508 17.958a1 1 0 0 1 -1 1h-26a1 1 0 0 1 -1-1v-15a1 1 0 0 1 .836-.986l5.444-.907 1.791-4.478c.153-.379.52-.629.929-.629h10c.408 0 .775.249.928.629l1.791 4.478 5.445.907a1 1 0 0 1 .836.986z"/></g></svg>

<?xml version="1.0" encoding="utf-8"?>
<!-- Generator: Adobe Illustrator 16.0.0, SVG Export Plug-In . SVG Version: 6.00 Build 0)  -->
<!DOCTYPE svg PUBLIC "-//W3C//DTD SVG 1.1//EN" "http://www.w3.org/Graphics/SVG/1.1/DTD/svg11.dtd">
<svg version="1.1" id="Layer_1" xmlns="http://www.w3.org/2000/svg" xmlns:xlink="http://www.w3.org/1999/xlink" x="0px" y="0px"
	 width="32px" height="32px" viewBox="0 0 32 32" enable-background="new 0 0 32 32" xml:space="preserve">
<g id="camera">
	<path fill-rule="evenodd" clip-rule="evenodd" fill="#333333" d="M16,10.001c-4.419,0-8,3.581-8,8c0,4.418,3.581,8,8,8
		c4.418,0,8-3.582,8-8C24,13.583,20.418,10.001,16,10.001z M20.555,21.906c-2.156,2.516-5.943,2.807-8.459,0.65
		c-2.517-2.156-2.807-5.944-0.65-8.459c2.155-2.517,5.943-2.807,8.459-0.65C22.42,15.602,22.711,19.391,20.555,21.906z"/>
	<path fill-rule="evenodd" clip-rule="evenodd" fill="#333333" d="M16,14.001c-2.209,0-3.999,1.791-4,3.999v0.002
		c0,0.275,0.224,0.5,0.5,0.5s0.5-0.225,0.5-0.5V18c0.001-1.656,1.343-2.999,3-2.999c0.276,0,0.5-0.224,0.5-0.5
		S16.276,14.001,16,14.001z"/>
	<path fill-rule="evenodd" clip-rule="evenodd" fill="#333333" d="M29.492,9.042l-4.334-0.723l-1.373-3.434
		C23.326,3.74,22.232,3,21,3H11C9.768,3,8.674,3.74,8.214,4.886L6.842,8.319L2.509,9.042C1.055,9.283,0,10.527,0,12v15
		c0,1.654,1.346,3,3,3h26c1.654,0,3-1.346,3-3V12C32,10.527,30.945,9.283,29.492,9.042z M30,27c0,0.553-0.447,1-1,1H3
		c-0.553,0-1-0.447-1-1V12c0-0.489,0.354-0.906,0.836-0.986l5.444-0.907l1.791-4.478C10.224,5.25,10.591,5,11,5h10
		c0.408,0,0.775,0.249,0.928,0.629l1.791,4.478l5.445,0.907C29.646,11.094,30,11.511,30,12V27z"/>
</g>
</svg>
